X: 3157
T: OLD STRATHSPEY
Q: "Strathspey."
R: Strathspey.
%R: strathspey
B: James Kerr "Merry Melodies" v.3 p.19 #157
Z: 2016 John Chambers <jc:trillian.mit.edu>
M: C
L: 1/16
K: F
uc2 |\
f4 (f3a) ff3 f3a | f3ag3f ec3c3e |\
ff3 f3a f3ag3a | bd3 g3e f4-f2 H::\
c2 |\
Ac3 cf3 Ac3 cf3 | dB3 Bd3 c3AG3B |
Ac3 cf3 dB3 Bd3 | c3BA3G FFF2 F2 :|\
D2 |\
A4(FD3) A4(FD3) | A3D DDD2 A4(Ad3) |\
A4(FD3) A4(FD3) |
A3D DDD2 A4(Ad3) |\
AA3 FD3 AA3 FD3 | A3D DDD2 A4(Ad3) |\
AA3 FD3 AA3 FD3 | d3A (FGA2) FD3 "_D.C."D2 |]

%%sep 1 1 500
%%sep 1 1 500

